X:1
T:Come unto Me, and Rest
T:Come unto Me, and Rest
T:James McGranahan
T:Daniel Webster Whittle, 1881
T:Public Domain Courtesy of the Cyber Hymnal™
T:Public Domain Courtesy of the Cyber Hymnal™
C:James McGranahan
Z:Public Domain
Z:Courtesy of the Cyber Hymnal™
%%score ( 1 2 ) ( 3 4 )
L:1/8
Q:1/4=110
M:4/4
K:G
V:1 treble 
V:2 treble 
V:3 bass 
V:4 bass 
V:1
 [GB]2 [GB]2 [GB]3 [FA] | [EG]2 [EG]2 [EG]2 [^DF]2 | [CE]2 [CE]2 [Ec]3 [Ec] | [DB]2 [GB]2 [FA]4 | %4
w: 1.~Bro- ther, art thou|worn and wear- y,|Tempt- ed, tried, and|sore op- pressed?|
w: 2.~Oh, He knows the|dark fore- bod- ings|Of the con- science|trou- bled breast,|
w: 3.~To the Lord bring|all your bur- den,|Put the prom- ise|to the test;|
w: 4.~If in sor- row|thou art weep- ing,|Griev- ing for the|loved ones missed,|
w: 5.~Trust to Him for|all thy fu- ture,|He will give thee|what is best;|
 [GB]2 [Gc]2 [Gd]3 [GB] | [FA]2 [EG]2 [^DF]2 E2 | [B,D]2 [DG]>[DA] [DG]2 [DF]2 | [DG]8 || %8
w: List- en to the|word of Je- sus,|“Come un- to Me, and|rest!”|
w: And to such His|word is giv- en,|“Come un- to Me, and|rest!”|
w: Hear Him say, your|Bur- den Bear- er,|“Come un- to Me, and|rest!”|
w: Sure- ly then to|you He whis- pers,|“Come un- to Me, and|rest!”|
w: Why then fear when|He is say- ing,|“Come un- to Me, and|rest!”|
"^Refrain" [FA]2 [FA]>[FA] [GB]2 [GB]2 | [FA]8 | [DB]2 [DB]>[DB] [Ec]2 [Ec]2 | [DB]8 | %12
w: ||||
w: ||||
w: “Come un- to Me, and|rest!”|“Come un- to Me, and|rest!”|
w: ||||
w: ||||
 [GB]2 [Gc]2 [Gd]3 [GB] | [FA]2 [EG]2 [^DF]2 E2 | [B,D]2 [DG]>[DA] [DG]2 [DF]2 | [DG]8 |] %16
w: ||||
w: ||||
w: Come, ye wear- y,|heav- y lad- en,|“Come un- to Me, and|rest!”|
w: ||||
w: ||||
V:2
 x8 | x8 | x8 | x8 | x8 | x6 (EC) | x8 | x8 || x8 | x8 | x8 | x8 | x8 | x6 (EC) | x8 | x8 |] %16
V:3
 [G,B,]2 [G,B,]2 [G,B,]3 [D,A,] | [E,B,]2 [E,B,]2 [E,B,]2 (B,A,) | [C,G,]2 [C,G,]2 [C,G,]3 [E,G,] | %3
w: ~ ~ ~ ~|~ ~ ~ ~ *|~ ~ ~ ~|
 (G,B,) [G,D]2 [D,D]4 | [G,D]2 [A,D]2 [B,D]3 [G,D] | (DC) [E,B,]2 (B,A,) [C,G,]2 | %6
w: ~ * ~ ~|~ ~ ~ ~|~ * ~ ~ * ~|
 [D,G,]2 [D,B,]>[D,C] [D,B,]2 (A,C) | [G,,B,]8 || [D,D]2 z4 [G,D]2 | [D,D]2 [D,D]2 [D,D]4 | %10
w: ~ ~ ~ ~ ~ *|~|Come, Oh,|come and rest!|
 G,2 z4 [C,G,]2 | [G,,G,]2 [G,,G,]2 [G,,G,]4 | [G,D]2 [A,D]2 [B,D]3 [G,D] | %13
w: Come, Oh,|come and rest!||
 (DC) [E,B,]2 (B,A,) [C,G,]2 | [D,G,]2 [D,B,]>[D,C] [D,B,]2 (A,C) | [G,,B,]8 |] %16
w: |||
V:4
 x8 | x6 B,,2 | x8 | G,2 x6 | x8 | D,2 x B,,2 x3 | x6 D,2 | x8 || x8 | x8 | G,2 x6 | x8 | x8 | %13
 D,2 x B,,2 x3 | x6 D,2 | x8 |] %16

